X: 446
%
U:~=!turn!
T: Mr. Graham of Orchills*
C:Neil Gow's Collection
O:Scotland
B:Keith Norman MacDonald : "The Skye collection of the best reels & strathspeys extant" : 1887
Z:Ralph Palmer
R:Strathspey
M:C
L:1/8
K:G dorian
f |\
c<Fc>A c>FA<f | c<Fc>A {/A}G2 G>f | c<Fc>A f>g{fg}a>g | f>d{/d}c>A G2 G :|
c |\
f>g{fg}a>g .f.c.A.F | (f/e/f/g/) a>c {/c}d2 d>e | f>ga>f g<af<c | d>fc>A {/A}G2 G>c |
f>g{fg}a>g .f.c.A.F | (f/e/f/g/) a>c {/c}d2 dg | (f/e/f/g/) a>f (g/f/g/a/) f>c | d<fc>A {/A}G2 G |]


